X: 39691
T: Tequila Ticket, The
R: jig
M: 6/8
K: Bminor
A,|B,CB, FB,F-|FB,F EDC|A,B,A, FA,F-|FED C2A,|
G,A,G, FG,F-|FG,F EDC|B,DF EDC|B,3 B,2:|
B,|:A,2A- AGF|FGF E2D|B,2G- GFE|E3 EDB,|
A,2A- AGF|FGF E2D|B,DF EDC|1 D3 DCB,:|2 B,3 B,2||

